X:1
T:Oh, the Joy That Awaits Me
T:Oh, the Joy That Awaits Me
T:E. F. Miller
T:George Raphael Clarke, 1884
T:Public Domain Courtesy of the Cyber Hymnal™
T:Public Domain Courtesy of the Cyber Hymnal™
C:E. F. Miller
Z:Public Domain
Z:Courtesy of the Cyber Hymnal™
%%score ( 1 2 ) ( 3 4 )
L:1/8
Q:1/4=80
M:2/4
K:Db
V:1 treble 
V:2 treble 
V:3 bass 
V:4 bass 
V:1
 [FA] | [FA]>[FA] [DF]>[EG] | [GB][FA] z ([FA]/[FA]/) | [EA]>[EG] [CE]>[EG] | %4
w: 1.~Be-|yond the si- lent|ri- ver, In~the *|glo- ry sum- mer-|
w: 2.~And|when I cross that|ri- ver, The *|first I will a-|
w: 3.~The|next one who will|greet me, In~the *|man- sions fair and|
w: 4.~The|curl- y head- ed|bro- ther And *|lit- tle ba- by|
 [DF]3 ([FA]/[FA]<)[GB][Bd]<[Ac][GB]/ | [GB][FA] z ([DF]/[DF]/) | [CE]>[CA] [Ec]>[DB] | %7
w: lands, In~the * beau- ti- ful for-|ev- er, Where~the *|jew- eled ci- ty|
w: dore, The * first to bid me|wel- come, Up- *|on that gold- en|
w: bright, Will * be my saint- ed|mo- ther, Ar- *|rayed in gar- ments|
w: dear, And * bright eyed lit- tle|sis- ter, With *|mer- ry laugh and|
 [CA]3 [GA] | [Fd]>[DF] [CG]>[DA] | [GB][GB] z [GB] | [=Ge]>[GB] [Gc]>[Gd] | [Ac]3 [GA] | %12
w: stands, Where|ev- er bloom- ing|flow- ers Send|forth their sweet per-|fume, My|
w: shore, Will|be my lov- ing|Sav- ior, The|one who died for|me, That|
w: white; And|then the gray haired|fa- ther, Close|press- ing by her|side, Will|
w: cheer, Will|a- ll clus- ter|round me, To|bid me wel- come|home, And|
 [Fd]>[FA] [DF]>[FA] | [G_c][GB] z [GB] | [FA]>[CE] [CB][CA] | D2 z ||"^Refrain" [FA]/[FA]/ | %17
w: heart’s most loved and|cher- ished In|heav’n- ly beau- ty|bloom.||
w: in the long for-|ev- er, From|sin I might be|free.|Oh, the|
w: grasp my hand with|fer- vor, Just|o’er the swell- ing|tide.||
w: watch with me the|ga- thering, Of|loved ones yet to|come.||
 [Fd]>[FA] [DF]>[EG] | [GB] [FA]2 [FA]/[FA]/ | [EA]>[EG] [CE]>[EG] | [DF]3 [FA]/[FA]/ | %21
w: ||||
w: joy that there a-|waits me When I|reach that gold- en|shore, When I|
w: ||||
w: ||||
 [GB]>[DG] [Dd]>[GB] | [FA] [DF]2 [Fd] | [Ec]>[GA] [GB]>[Gc] | [Fd]6 |] %25
w: ||||
w: grasp the hands of|loved ones, To|part with them no|more.|
w: ||||
w: ||||
V:2
 x | x4 | x4 | x4 | x8 | x4 | x4 | x4 | x4 | x4 | x4 | x4 | x4 | x4 | x4 | D2 x || x | x4 | x4 | %19
 x4 | x4 | x4 | x4 | x4 | x6 |] %25
V:3
 [D,D] | [D,D]>[D,D] [D,A,]>[D,A,] | [D,D][D,D] z ([D,D]/[D,D]/) | [A,,C]>[A,,A,] [A,,A,]>[A,,A,] | %4
 [D,A,]3 ([D,D]/[D,D]<)[G,D][G,D]<[G,D][G,D]/ | [D,D][D,D] z ([D,A,]/[D,A,]/) | %6
 [E,A,]>[E,A,] [E,A,]>[E,=G,] | [A,,A,]3 [A,,A,] | [D,A,]>[D,A,] [D,A,]>[F,A,] | %9
 [G,D][G,D] z [G,D] | [E,D]>[E,B,] [E,B,]>[E,B,] | A,3 A, | [D,A,]>[D,A,] [D,A,]>[D,D] | %13
 [G,D][G,D] z [D,D] | A,>[A,,A,] [A,,A,][A,,G,] | [D,F,]2 z || [D,D]/[D,D]/ | %17
 [D,A,]>[D,D] [D,A,]>[D,A,] | [D,D] [D,D]2 [D,D]/[D,D]/ | [A,C]>A, [A,,A,]>[A,,A,] | %20
 [D,A,]3 [D,D]/[D,D]/ | [G,D]>[G,B,] [G,B,]>[G,D] | [D,D] [D,A,]2 [D,A,] | A,>A, [A,,A,]>[A,,A,] | %24
 [D,A,]6 |] %25
V:4
 x | x4 | x4 | x4 | x8 | x4 | x4 | x4 | x4 | x4 | x4 | A,3 A, | x4 | x4 | A,3/2 x5/2 | x3 || x | %17
 x4 | x4 | x3/2 A,/ x2 | x4 | x4 | x4 | A,>A, x2 | x6 |] %25

